icon-themes/breeze_svg/cmd/sc_showslide.svg

<svg xmlns="http://www.w3.org/2000/svg" viewBox="0 0 16 16">
     />
 <path 
     style="fill:#4d4d4d" 
     d="M 2 2 L 2 11 L 6 11 L 6 13 L 5 13 L 5 14 L 11 14 L 11 13 L 10 13 L 10 11 L 14 11 L 14 2 L 2 2 z M 3 3 L 13 3 L 13 10 L 3 10 L 3 3 z M 9.75 4.3125 L 7.125 6.9375 L 6.25 6.0625 L 5.375 6.9375 L 6.25 7.8125 L 7.125 8.6875 L 10.625 5.1875 L 9.75 4.3125 z M 7 11 L 9 11 L 9 13 L 7 13 L 7 11 z "
     />
 </svg>

<svg viewBox="0 0 16 16" xmlns="http://www.w3.org/2000/svg">/&gt;<path d="m2 2v9h4v2h-1v1h6v-1h-1v-2h4v-9zm1 1h10v7h-10zm6.75 1.3125-2.625 2.625-.875-.875-.875.875.875.875.875.875 3.5-3.5zm-2.75 6.6875h2v2h-2z" fill="#4d4d4d"/></svg>
